X:1
T:Trouble in Mind
M:4/4
L:1/8
K:G
 D E3/2 D/2| B6 B2| A6 ^A3/2 B/2| d3 B =A2 G2| C4| z2 z ^A/2B/2| d2 B G- E3 z|\
 z EG A ^A2 G G-| G4||
